!!!!SEGMENT: Fsc2018-Inviolata_integra_et_casta_es.krn
!!!id: Fsc2018
!!!AGN: Motet
!!!SCT: Seay (1977)
!!!voices: 8
!!!COM: Costanzo Festa
!!!OTL: Inviolata, integra, et casta es
**kern	**kern	**kern	**kern	**kern	**kern	**kern	**kern
*part8	*part7	*part6	*part5	*part4	*part3	*part2	*part1
*staff8	*staff7	*staff6	*staff5	*staff4	*staff3	*staff2	*staff1
*I"Bassus II	*I"Bassus I	*I"Tenor II	*I"Tenor I	*I"Altus II	*I"Altus I	*I"Superius II	*I"Superius I
*I'B. II	*I'B. I	*I'T. II	*I'T. I	*I'A. II	*I'A. I	*I'S. II	*I'S. I
*clefF4	*clefF4	*clefGv2	*clefGv2	*clefGv2	*clefGv2	*clefG2	*clefG2
*k[b-]	*k[b-]	*k[b-]	*k[b-]	*k[b-]	*k[b-]	*k[b-]	*k[b-]
*F:	*F:	*F:	*F:	*F:	*F:	*F:	*F:
*M2/1	*M2/1	*M2/1	*M2/1	*M2/1	*M2/1	*M2/1	*M2/1
*met(C|)	*met(C|)	*met(C|)	*met(C|)	*met(C|)	*met(C|)	*met(C|)	*met(C|)
!!section: Prima pars: Inviolata, integra, et casta es
!!!OMD: Prima pars: Inviolata, integra, et casta es
=1	=1	=1	=1	=1	=1	=1	=1
!LO:TX:a:t=Canon&colon; bassus II/altus II at the octave	!LO:TX:a:t=Canon&colon; bassus I/altus I at the octave	!LO:TX:a:t=Canon&colon; tenor II/superius II at the octave	!LO:TX:a:t=Canon&colon; tenor I/superius I at the octave	!	!	!	!
0FF	0F	0F	0F	0r	0r	0r	0r
=2	=2	=2	=2	=2	=2	=2	=2
1F	1D	1F	1A	0r	0r	0r	0r
1F	1D	1F	1B-y	.	.	.	.
=3	=3	=3	=3	=3	=3	=3	=3
1E	1C	[0G	2.c	0r	0r	0r	0r
.	.	.	8B-yL	.	.	.	.
.	.	.	8cJ	.	.	.	.
2D	2BB-y	.	2d	.	.	.	.
[2E	[2C	.	[2c	.	.	.	.
=4	=4	=4	=4	=4	=4	=4	=4
2E]	2C]	0G]	2c]	0r	0r	0r	0r
4D	4BB-y	.	2d	.	.	.	.
4C	4AA	.	.	.	.	.	.
2D	1GG	.	2.B-y	.	.	.	.
2E	.	.	.	.	.	.	.
.	.	.	8AL	.	.	.	.
.	.	.	8GJ	.	.	.	.
=5	=5	=5	=5	=5	=5	=5	=5
0F	0FF	0A	0c	0F	0f	0f	0f
=6	=6	=6	=6	=6	=6	=6	=6
0r	0r	0r	0r	1f	1d	1f	1a
.	.	.	.	1f	1d	1f	1b-y
=7	=7	=7	=7	=7	=7	=7	=7
0r	0r	0r	0r	1e	1c	[0g	2.cc
.	.	.	.	.	.	.	8b-yL
.	.	.	.	.	.	.	8ccJ
.	.	.	.	2d	2B-y	.	2dd
.	.	.	.	[2e	[2c	.	[2cc
=8	=8	=8	=8	=8	=8	=8	=8
0r	0r	1r	0r	2e]	2c]	0g]	2cc]
.	.	.	.	4d	4B-y	.	2dd
.	.	.	.	4c	4A	.	.
.	.	1B-y	.	2d	1G	.	2.b-y
.	.	.	.	2e	.	.	.
.	.	.	.	.	.	.	8aL
.	.	.	.	.	.	.	8gJ
=9	=9	=9	=9	=9	=9	=9	=9
0FF	0F	0A	1r	0f	0F	0a	0cc
.	.	.	[1c	.	.	.	.
=10	=10	=10	=10	=10	=10	=10	=10
1C	1E	1G	1c]	0r	0r	0r	0r
2GG	1D	1r	1B-y	.	.	.	.
2BB-y	.	.	.	.	.	.	.
=11	=11	=11	=11	=11	=11	=11	=11
1FF	2C	1A	2A	0r	0r	0r	0r
.	1F	.	2.c	.	.	.	.
1C	.	1G	.	.	.	.	.
.	.	.	4B-y	.	.	.	.
.	2E	.	4A	.	.	.	.
.	.	.	4G	.	.	.	.
=12	=12	=12	=12	=12	=12	=12	=12
2FF	2F	[0F	2A	0r	0r	1r	0r
1BB-y	1D	.	2F	.	.	.	.
.	.	.	4D	.	.	1b-y	.
.	.	.	4E	.	.	.	.
4AA	4C	.	4F	.	.	.	.
4GG	4BB-y	.	4G	.	.	.	.
=13	=13	=13	=13	=13	=13	=13	=13
0FF	0C	0F]	0A	0F	0f	0a	1r
.	.	.	.	.	.	.	[1cc
=14	=14	=14	=14	=14	=14	=14	=14
0r	0r	0r	0r	1c	1e	1g	1cc]
.	.	.	.	2G	1d	1r	1b-y
.	.	.	.	2B-y	.	.	.
=15	=15	=15	=15	=15	=15	=15	=15
0r	0r	0r	0r	1F	2c	1a	2a
.	.	.	.	.	1f	.	2.cc
.	.	.	.	1c	.	1g	.
.	.	.	.	.	.	.	4b-y
.	.	.	.	.	2e	.	4a
.	.	.	.	.	.	.	4g
=16	=16	=16	=16	=16	=16	=16	=16
0r	1r	1r	0r	2F	2f	[0f	2a
.	.	.	.	1B-y	1d	.	2f
.	1BB-y	1B-y	.	.	.	.	4d
.	.	.	.	.	.	.	4e
.	.	.	.	4A	4c	.	4f
.	.	.	.	4G	4B-y	.	4g
=17	=17	=17	=17	=17	=17	=17	=17
0FF	1.F	1.A	4F	0F	0c	0f]	0a
.	.	.	4G	.	.	.	.
.	.	.	4A	.	.	.	.
.	.	.	4B-y	.	.	.	.
.	.	.	2c	.	.	.	.
.	4E	4G	2A	.	.	.	.
.	4D	4F	.	.	.	.	.
=18	=18	=18	=18	=18	=18	=18	=18
2FF	2A	2.F	2c	0r	0r	0r	0r
2F	2D	.	2F	.	.	.	.
.	.	4G	.	.	.	.	.
2E	2C	2A	1r	.	.	.	.
[2F	[2D	[2B-y	.	.	.	.	.
=19	=19	=19	=19	=19	=19	=19	=19
4F]	4D]	4B-]	2r	0r	0r	0r	0r
4E	4C	4A	.	.	.	.	.
1.E	2AA	1A	2A	.	.	.	.
.	1BB-y	.	1d	.	.	.	.
.	.	2G	.	.	.	.	.
=20	=20	=20	=20	=20	=20	=20	=20
2E	2AA	1A	2c	0r	1r	1r	0r
1F	2FF	.	1C	.	.	.	.
.	1GG	1r	.	.	1B-y	1b-y	.
2E	.	.	2BB-y	.	.	.	.
=21	=21	=21	=21	=21	=21	=21	=21
0F	0FF	0r	0C	0F	1.f	1.a	4f
.	.	.	.	.	.	.	4g
.	.	.	.	.	.	.	4a
.	.	.	.	.	.	.	4b-y
.	.	.	.	.	.	.	2cc
.	.	.	.	.	4e	4g	2a
.	.	.	.	.	4d	4f	.
=22	=22	=22	=22	=22	=22	=22	=22
0r	0r	0r	0r	2F	2a	2.f	2cc
.	.	.	.	2f	2d	.	2f
.	.	.	.	.	.	4g	.
.	.	.	.	2e	2c	2a	1r
.	.	.	.	[2f	[2d	[2b-y	.
=23	=23	=23	=23	=23	=23	=23	=23
0r	0r	0r	0r	4f]	4d]	4b-]	2r
.	.	.	.	4e	4c	4a	.
.	.	.	.	1e	2A	1a	2a
.	.	.	.	.	1B-y	.	1dd
.	.	.	.	2d	.	2g	.
=24	=24	=24	=24	=24	=24	=24	=24
0r	0r	0r	0r	2e	2A	1a	2cc
.	.	.	.	1f	2F	.	1c
.	.	.	.	.	1G	1r	.
.	.	.	.	2e	.	.	2B-y
=25	=25	=25	=25	=25	=25	=25	=25
0r	1.FF	1F	1A	0f	0F	0r	0c
.	.	1A	2c	.	.	.	.
.	[2F	.	2c	.	.	.	.
=26	=26	=26	=26	=26	=26	=26	=26
1BB-y	2F]	1B-y	1d	0r	0r	0r	0r
.	2D	.	.	.	.	.	.
1D	1F	1A	2D	.	.	.	.
.	.	.	[2d	.	.	.	.
=27	=27	=27	=27	=27	=27	=27	=27
1E-i	1C	1G	2d]	0r	0r	0r	0r
.	.	.	1c	.	.	.	.
1D	2r	1r	.	.	.	.	.
.	2GG	.	2Bni	.	.	.	.
=28	=28	=28	=28	=28	=28	=28	=28
2C	2AA	1A	[0c	0r	0r	0r	0r
1F	2FF	.	.	.	.	.	.
.	1C	1G	.	.	.	.	.
2E	.	.	.	.	.	.	.
=29	=29	=29	=29	=29	=29	=29	=29
1F	0FF	0F	0c]	0r	1.F	1f	1a
1C	.	.	.	.	.	1a	2cc
.	.	.	.	.	[2f	.	2cc
=30	=30	=30	=30	=30	=30	=30	=30
0r	0r	0r	0r	1B-y	2f]	1b-y	1dd
.	.	.	.	.	2d	.	.
.	.	.	.	1d	1f	1a	2d
.	.	.	.	.	.	.	[2dd
=31	=31	=31	=31	=31	=31	=31	=31
0r	0r	0r	0r	1e-i	1c	1g	2dd]
.	.	.	.	.	.	.	1cc
.	.	.	.	1d	2r	1r	.
.	.	.	.	.	2G	.	2bni
=32	=32	=32	=32	=32	=32	=32	=32
0r	0r	0r	0r	2c	2A	1a	[0cc
.	.	.	.	1f	2F	.	.
.	.	.	.	.	1c	1g	.
.	.	.	.	2e	.	.	.
=33	=33	=33	=33	=33	=33	=33	=33
1r	1r	0A	2.c	1f	0F	0f	0cc]
.	.	.	4B-y	.	.	.	.
[1F	2r	.	4A	1c	.	.	.
.	.	.	4G	.	.	.	.
.	[2FF	.	2F	.	.	.	.
=34	=34	=34	=34	=34	=34	=34	=34
1F]	4FF]	0c	2.C	0r	0r	0r	0r
.	4GG	.	.	.	.	.	.
.	4AA	.	.	.	.	.	.
.	4BB-y	.	4D	.	.	.	.
1E	2.C	.	4E	.	.	.	.
.	.	.	4F	.	.	.	.
.	.	.	[2G	.	.	.	.
.	4BB-y	.	.	.	.	.	.
=35	=35	=35	=35	=35	=35	=35	=35
1D	2GG	1B-y	4G]	0r	0r	0r	0r
.	.	.	4F	.	.	.	.
.	2BB-y	.	4D	.	.	.	.
.	.	.	4E	.	.	.	.
2C	2FF	[1A	4F	.	.	.	.
.	.	.	4G	.	.	.	.
[2D	[2F	.	2A	.	.	.	.
=36	=36	=36	=36	=36	=36	=36	=36
4D]	4F]	1A]	2D	0r	0r	0r	0r
4C	4E	.	.	.	.	.	.
4BB-y	4D	.	1d	.	.	.	.
4AA	4C	.	.	.	.	.	.
2BB-y	2D	1G	.	.	.	.	.
2C	2E	.	[2c	.	.	.	.
=37	=37	=37	=37	=37	=37	=37	=37
0FF	1F	0A	4c]	1r	1r	0a	2.cc
.	.	.	4B-y	.	.	.	.
.	.	.	4A	.	.	.	.
.	.	.	4G	.	.	.	4b-y
.	1C	.	1F	[1f	2r	.	4a
.	.	.	.	.	.	.	4g
.	.	.	.	.	[2F	.	2f
=38	=38	=38	=38	=38	=38	=38	=38
0r	0r	0r	1c	1f]	4F]	0cc	2.c
.	.	.	.	.	4G	.	.
.	.	.	.	.	4A	.	.
.	.	.	.	.	4B-y	.	4d
.	.	.	1r	1e	2.c	.	4e
.	.	.	.	.	.	.	4f
.	.	.	.	.	.	.	[2g
.	.	.	.	.	4B-y	.	.
=39	=39	=39	=39	=39	=39	=39	=39
0r	0r	0r	0r	1d	2G	1b-y	4g]
.	.	.	.	.	.	.	4f
.	.	.	.	.	2B-y	.	4d
.	.	.	.	.	.	.	4e
.	.	.	.	2c	2F	[1a	4f
.	.	.	.	.	.	.	4g
.	.	.	.	[2d	[2f	.	2a
=40	=40	=40	=40	=40	=40	=40	=40
0r	0r	0r	0r	4d]	4f]	1a]	2d
.	.	.	.	4c	4e	.	.
.	.	.	.	4B-y	4d	.	1dd
.	.	.	.	4A	4c	.	.
.	.	.	.	2B-y	2d	1g	.
.	.	.	.	2c	2e	.	[2cc
=41	=41	=41	=41	=41	=41	=41	=41
1C	1.FF	0A	1c	0F	1f	0a	4cc]
.	.	.	.	.	.	.	4b-y
.	.	.	.	.	.	.	4a
.	.	.	.	.	.	.	4g
1F	.	.	2A	.	1c	.	1f
.	[2F	.	[2d	.	.	.	.
=42	=42	=42	=42	=42	=42	=42	=42
1C	2F]	1G	2d]	0r	0r	0r	1cc
.	2E	.	1c	.	.	.	.
2r	1D	1F	.	.	.	.	1r
[2F	.	.	2B-y	.	.	.	.
=43	=43	=43	=43	=43	=43	=43	=43
2F]	1C	1G	2c	0r	0r	0r	0r
2E	.	.	2G	.	.	.	.
1D	2r	1F	2A	.	.	.	.
.	[2F	.	2B-y	.	.	.	.
=44	=44	=44	=44	=44	=44	=44	=44
0C	2F]	0G	2.c	0r	0r	0r	0r
.	4E	.	.	.	.	.	.
.	4D	.	8B-yL	.	.	.	.
.	.	.	8AJ	.	.	.	.
.	1E	.	1G	.	.	.	.
=45	=45	=45	=45	=45	=45	=45	=45
0FF	1F	0A	0F	1c	1.F	0a	1cc
.	[1C	.	.	1f	.	.	2a
.	.	.	.	.	[2f	.	[2dd
=46	=46	=46	=46	=46	=46	=46	=46
0r	1C]	0r	0r	1c	2f]	1g	2dd]
.	.	.	.	.	2e	.	1cc
.	1r	.	.	2r	1d	1f	.
.	.	.	.	[2f	.	.	2b-y
=47	=47	=47	=47	=47	=47	=47	=47
0r	0r	0r	0r	2f]	1c	1g	2cc
.	.	.	.	2e	.	.	2g
.	.	.	.	1d	2r	1f	2a
.	.	.	.	.	[2f	.	2b-y
=48	=48	=48	=48	=48	=48	=48	=48
0r	0r	0r	0r	0c	2f]	0g	2.cc
.	.	.	.	.	4e	.	.
.	.	.	.	.	4d	.	8b-yL
.	.	.	.	.	.	.	8aJ
.	.	.	.	.	1e	.	1g
=49	=49	=49	=49	=49	=49	=49	=49
0r	0r	[0c	[0A	0F	1f	0a	0f
.	.	.	.	.	[1c	.	.
=50	=50	=50	=50	=50	=50	=50	=50
0AA	1.E	0c]	0A]	0r	1c]	0r	0r
.	.	.	.	.	1r	.	.
.	2F	.	.	.	.	.	.
=51	=51	=51	=51	=51	=51	=51	=51
1GG	1G	1B-y	1B-y	0r	0r	0r	0r
1AA	2E	[1A	1c	.	.	.	.
.	[2F	.	.	.	.	.	.
=52	=52	=52	=52	=52	=52	=52	=52
0BB-y	4F]	2A]	1.d	0r	0r	0r	0r
.	4E	.	.	.	.	.	.
.	4D	4G	.	.	.	.	.
.	4C	4F	.	.	.	.	.
.	1D	1G	.	.	.	.	.
.	.	.	4c	.	.	.	.
.	.	.	4B-y	.	.	.	.
=53	=53	=53	=53	=53	=53	=53	=53
[0AA	[0E	[0A	[0c	0r	0r	[0cc	[0a
=54	=54	=54	=54	=54	=54	=54	=54
0AA]	0E]	0A]	0c]	0A	1.e	0cc]	0a]
.	.	.	.	.	2f	.	.
=55	=55	=55	=55	=55	=55	=55	=55
0r	0r	0r	0r	1G	1g	1b-y	1b-y
.	.	.	.	1A	2e	[1a	1cc
.	.	.	.	.	[2f	.	.
=56	=56	=56	=56	=56	=56	=56	=56
0r	0r	0r	0r	0B-y	4f]	2a]	1.dd
.	.	.	.	.	4e	.	.
.	.	.	.	.	4d	4g	.
.	.	.	.	.	4c	4f	.
.	.	.	.	.	1d	1g	.
.	.	.	.	.	.	.	4cc
.	.	.	.	.	.	.	4b-y
=57	=57	=57	=57	=57	=57	=57	=57
0r	0r	0r	0r	[0A	[0e	0a	[0cc
=58	=58	=58	=58	=58	=58	=58	=58
1.AA	1.C	0A	1c	0A]	0e]	0r	0cc]
.	.	.	[1c	.	.	.	.
2BB-y	2D	.	.	.	.	.	.
=59	=59	=59	=59	=59	=59	=59	=59
1C	1E	1G	2c]	0r	0r	0r	0r
.	.	.	2B-y	.	.	.	.
2r	1F	1F	1A	.	.	.	.
[2F	.	.	.	.	.	.	.
=60	=60	=60	=60	=60	=60	=60	=60
2F]	1C	1G	1G	0r	0r	0r	0r
2E	.	.	.	.	.	.	.
2A	1r	1F	2r	.	.	.	.
[2F	.	.	[2c	.	.	.	.
=61	=61	=61	=61	=61	=61	=61	=61
2F]	0C	0G	2c]	0r	0r	0r	0r
4E	.	.	4B-y	.	.	.	.
4D	.	.	4A	.	.	.	.
1E	.	.	1G	.	.	.	.
=62	=62	=62	=62	=62	=62	=62	=62
0F	0FF	1A	2.F	1.A	1.c	0a	1cc
.	.	.	4G	.	.	.	.
.	.	1r	2A	.	.	.	[1cc
.	.	.	2F	2B-y	2d	.	.
=63	=63	=63	=63	=63	=63	=63	=63
1E	1C	[0c	1G	1c	1e	1g	2cc]
.	.	.	.	.	.	.	2b-y
2C	1FF	.	2r	2r	1f	1f	1a
2FF	.	.	[2C	[2f	.	.	.
=64	=64	=64	=64	=64	=64	=64	=64
1C	1r	0c]	4C]	2f]	1c	1g	1g
.	.	.	4D	.	.	.	.
.	.	.	2E	2e	.	.	.
1FF	2r	.	2.C	2a	1r	1f	2r
.	2FF	.	.	[2f	.	.	[2cc
.	.	.	4D	.	.	.	.
=65	=65	=65	=65	=65	=65	=65	=65
1r	1C	1.c	0E	2f]	0c	0g	2cc]
.	.	.	.	4e	.	.	4b-y
.	.	.	.	4d	.	.	4a
1C	1C	.	.	1e	.	.	1g
.	.	2B-y	.	.	.	.	.
=66	=66	=66	=66	=66	=66	=66	=66
1.F	0r	0A	0r	0f	0F	1a	2.f
.	.	.	.	.	.	.	4g
.	.	.	.	.	.	1r	2a
4E	.	.	.	.	.	.	2f
4D	.	.	.	.	.	.	.
=67	=67	=67	=67	=67	=67	=67	=67
1C	1E	2r	1c	1e	1c	[0cc	1g
.	.	2G	.	.	.	.	.
1F	2F	2A	2A	2c	1F	.	2r
.	2F	2F	2A	2F	.	.	[2c
=68	=68	=68	=68	=68	=68	=68	=68
1E	1C	2G	2c	1c	1r	0cc]	4c]
.	.	.	.	.	.	.	4d
.	.	2.c	2G	.	.	.	2e
1r	2r	.	2A	1F	2r	.	2.c
.	.	4B-y	.	.	.	.	.
.	2F	2A	[2c	.	2F	.	.
.	.	.	.	.	.	.	4d
=69	=69	=69	=69	=69	=69	=69	=69
1r	1C	2G	4c]	1r	1c	1.cc	0e
.	.	.	4B-y	.	.	.	.
.	.	2.c	2G	.	.	.	.
1AA	1E	.	1A	1c	1c	.	.
.	.	4B-y	.	.	.	.	.
.	.	4A	.	.	.	2b-y	.
.	.	4G	.	.	.	.	.
=70	=70	=70	=70	=70	=70	=70	=70
0D	1D	2.F	1.A	1.f	0r	[0al	0r
.	.	8EL	.	.	.	.	.
.	.	8DJ	.	.	.	.	.
.	1F	[1A	.	.	.	.	.
.	.	.	2B-y	4e	.	.	.
.	.	.	.	4d	.	.	.
=71	=71	=71	=71	=71	=71	=71	=71
1AA	2E	2A]	4c	1c	1e	0a_	1cc
.	.	.	4B-y	.	.	.	.
.	2C	2A	4A	.	.	.	.
.	.	.	4G	.	.	.	.
1D	1D	[1Al	2.F	1f	2f	.	2a
.	.	.	.	.	2f	.	2a
.	.	.	8EL	.	.	.	.
.	.	.	8DJ	.	.	.	.
=	=	=	=	=	=	=	=
00AA	00E	00A]	00A	00e	00c	00a]	00cc
=||	=||	=||	=||	=||	=||	=||	=||
*M2/1	*M2/1	*M2/1	*M2/1	*M2/1	*M2/1	*M2/1	*M2/1
*met(C|)	*met(C|)	*met(C|)	*met(C|)	*met(C|)	*met(C|)	*met(C|)	*met(C|)
!!section: Secunda pars: Nostra ut pura
!!!OMD: Secunda pars: Nostra ut pura
!LO:TX:a:t=Canon&colon; bassus II/altus II at the octave	!LO:TX:a:t=Canon&colon; bassus I/altus I at the octave	!LO:TX:a:t=Canon&colon; tenor II/superius II at the octave	!LO:TX:a:t=Canon&colon; tenor I/superius I at the octave	!	!	!	!
0BB-y	0B-y	0F	0d	0r	0r	0r	0r
=72	=72	=72	=72	=72	=72	=72	=72
1.D	2.A	1F	1d	0r	0r	0r	0r
.	4G	.	.	.	.	.	.
.	2F	1A	[1d	.	.	.	.
2C	2E	.	.	.	.	.	.
=73	=73	=73	=73	=73	=73	=73	=73
2BB-y	4D	0B-y	2d]	0r	0r	0r	0r
.	4C	.	.	.	.	.	.
2AA	1F	.	2c	.	.	.	.
1GG	.	.	2B-y	.	.	.	.
.	2E	.	4A	.	.	.	.
.	.	.	4G	.	.	.	.
=74	=74	=74	=74	=74	=74	=74	=74
0FF	1F	0A	0c	0F	0f	0c	0a
.	1C	.	.	.	.	.	.
=75	=75	=75	=75	=75	=75	=75	=75
0r	0r	0r	0r	1.A	2.e	1c	1a
.	.	.	.	.	4d	.	.
.	.	.	.	.	2c	1e	[1a
.	.	.	.	2G	2B-y	.	.
=76	=76	=76	=76	=76	=76	=76	=76
0r	0r	0r	0r	2F	4A	0f	2a]
.	.	.	.	.	4G	.	.
.	.	.	.	2E	1c	.	2g
.	.	.	.	1D	.	.	2f
.	.	.	.	.	2Bni	.	4e
.	.	.	.	.	.	.	4d
=77	=77	=77	=77	=77	=77	=77	=77
0r	0r	0r	0r	0C	1c	0e	0g
.	.	.	.	.	1G	.	.
=78	=78	=78	=78	=78	=78	=78	=78
2.FF	1.C	0A	2.c	0r	0r	0r	0r
4GG	.	.	4B-y	.	.	.	.
2AA	.	.	4A	.	.	.	.
.	.	.	4G	.	.	.	.
2BB-y	2D	.	2F	.	.	.	.
=79	=79	=79	=79	=79	=79	=79	=79
2C	2E	0G	2c	0r	0r	0r	0r
2BB-y	1F	.	2d	.	.	.	.
1C	.	.	2c	.	.	.	.
.	2E	.	[2c	.	.	.	.
=80	=80	=80	=80	=80	=80	=80	=80
0FF	2F	0F	4c]	0r	0r	0r	0r
.	.	.	4B-y	.	.	.	.
.	2C	.	4A	.	.	.	.
.	.	.	4G	.	.	.	.
.	1F	.	1A	.	.	.	.
=81	=81	=81	=81	=81	=81	=81	=81
0r	1E	0r	1G	2.C	1.G	0e	2.g
.	.	.	.	4D	.	.	4f
.	1r	.	1r	2E	.	.	4e
.	.	.	.	.	.	.	4d
.	.	.	.	2F	2A	.	2c
=82	=82	=82	=82	=82	=82	=82	=82
0r	0r	0r	0r	2G	2B-y	0d	2g
.	.	.	.	2F	1c	.	2a
.	.	.	.	1G	.	.	2g
.	.	.	.	.	2B-y	.	[2g
=83	=83	=83	=83	=83	=83	=83	=83
0r	1r	0G	1r	0C	2c	0c	4g]
.	.	.	.	.	.	.	4f
.	.	.	.	.	2G	.	4e
.	.	.	.	.	.	.	4d
.	2r	.	2.G	.	1c	.	1e
.	2G	.	.	.	.	.	.
.	.	.	4A	.	.	.	.
=84	=84	=84	=84	=84	=84	=84	=84
1GG	2.D	1G	4B-y	0r	1B-y	0r	1d
.	.	.	4c	.	.	.	.
.	.	.	4d	.	.	.	.
.	4E	.	4B-y	.	.	.	.
1FF	4F	1A	[1c	.	1r	.	1r
.	4C	.	.	.	.	.	.
.	[2F	.	.	.	.	.	.
=85	=85	=85	=85	=85	=85	=85	=85
1C	2F]	0G	2c]	0r	0r	0r	0r
.	4E	.	4B-y	.	.	.	.
.	4D	.	4A	.	.	.	.
1C	1E	.	2.G	.	.	.	.
.	.	.	8FL	.	.	.	.
.	.	.	8EJ	.	.	.	.
=86	=86	=86	=86	=86	=86	=86	=86
1D	1F	1F	2D	0r	1r	0d	1r
.	.	.	2d	.	.	.	.
1GG	1G	1r	2.B-y	.	2r	.	2.d
.	.	.	.	.	2d	.	.
.	.	.	4c	.	.	.	4e
=87	=87	=87	=87	=87	=87	=87	=87
0r	1F	0r	1d	1D	2.A	1d	4f
.	.	.	.	.	.	.	4g
.	.	.	.	.	.	.	4a
.	.	.	.	.	4B-y	.	4f
.	1r	.	1r	1C	4c	1e	[1g
.	.	.	.	.	4G	.	.
.	.	.	.	.	[2c	.	.
=88	=88	=88	=88	=88	=88	=88	=88
0r	0r	0r	0r	1G	2c]	0d	2g]
.	.	.	.	.	4B-y	.	4f
.	.	.	.	.	4A	.	4e
.	.	.	.	1G	1B-y	.	2.d
.	.	.	.	.	.	.	8cL
.	.	.	.	.	.	.	8B-yJ
=89	=89	=89	=89	=89	=89	=89	=89
1F	1FF	1F	1.f	1A	1c	1c	2A
.	.	.	.	.	.	.	2a
2D	1BB-y	1F	.	1D	1d	1r	2.f
2BB-y	.	.	2d	.	.	.	.
.	.	.	.	.	.	.	4g
=90	=90	=90	=90	=90	=90	=90	=90
2C	1AA	1A	2e	0r	1c	0r	1a
1F	.	.	2c	.	.	.	.
.	1GG	1B-y	2d	.	1r	.	1r
2E	.	.	2G	.	.	.	.
=91	=91	=91	=91	=91	=91	=91	=91
2F	2FF	2A	2c	0r	0r	0r	0r
2BB-y	1F	2B-y	2d	.	.	.	.
1C	.	1G	1c	.	.	.	.
.	2E	.	.	.	.	.	.
=92	=92	=92	=92	=92	=92	=92	=92
0FF	1F	0F	0A	1c	1C	1c	1.cc
.	1C	.	.	2A	1F	1c	.
.	.	.	.	2F	.	.	2a
=93	=93	=93	=93	=93	=93	=93	=93
0r	0r	0r	0r	2G	1E	1e	2b-y
.	.	.	.	1c	.	.	2g
.	.	.	.	.	1D	1f	2a
.	.	.	.	2B-y	.	.	2d
=94	=94	=94	=94	=94	=94	=94	=94
0r	0r	0r	0r	2c	2C	2e	2g
.	.	.	.	2F	1c	2f	2a
.	.	.	.	1G	.	1d	1g
.	.	.	.	.	2Bni	.	.
=95	=95	=95	=95	=95	=95	=95	=95
2.C	2r	1G	1c	0C	1c	0c	0e
.	2.C	.	.	.	.	.	.
4D	.	.	.	.	.	.	.
4E	.	1G	1c	.	1G	.	.
4F	4D	.	.	.	.	.	.
4G	2E	.	.	.	.	.	.
4E	.	.	.	.	.	.	.
=96	=96	=96	=96	=96	=96	=96	=96
2F	2D	1A	1d	0r	0r	0r	0r
2D	2F	.	.	.	.	.	.
2E	2C	2G	2c	.	.	.	.
[2F	2D	2F	2A	.	.	.	.
=97	=97	=97	=97	=97	=97	=97	=97
2F]	1C	1G	4c	0r	0r	0r	0r
.	.	.	4B-y	.	.	.	.
2E	.	.	4A	.	.	.	.
.	.	.	4G	.	.	.	.
1F	1FF	1F	1A	.	.	.	.
=98	=98	=98	=98	=98	=98	=98	=98
0r	0r	0r	0B-y	2.G	2r	1d	1g
.	.	.	.	.	2.G	.	.
.	.	.	.	4A	.	.	.
.	.	.	.	4B-y	.	1d	1g
.	.	.	.	4c	4A	.	.
.	.	.	.	4d	2B-y	.	.
.	.	.	.	4B-y	.	.	.
=99	=99	=99	=99	=99	=99	=99	=99
0r	0r	0r	0r	2c	2A	1e	1a
.	.	.	.	2A	2c	.	.
.	.	.	.	2B-y	2G	2d	2g
.	.	.	.	[2c	2A	2c	2e
=100	=100	=100	=100	=100	=100	=100	=100
0r	0r	0r	0r	2c]	1G	1d	4g
.	.	.	.	.	.	.	4f
.	.	.	.	2Bni	.	.	4e
.	.	.	.	.	.	.	4d
.	.	.	.	1c	1C	1c	1e
=101	=101	=101	=101	=101	=101	=101	=101
1BB-y	1BB-y	0F	2r	0r	0r	0r	0f
.	.	.	1B-y	.	.	.	.
1C	1FF	.	.	.	.	.	.
.	.	.	2A	.	.	.	.
=102	=102	=102	=102	=102	=102	=102	=102
1D	1BB-y	1F	1B-y	0r	0r	0r	0r
[1C	2AA	[1A	2.c	.	.	.	.
.	[2FF	.	.	.	.	.	.
.	.	.	4B-y	.	.	.	.
=103	=103	=103	=103	=103	=103	=103	=103
2C]	4FF]	1A]	4A	0r	0r	0r	0r
.	4GG	.	4G	.	.	.	.
2FF	4AA	.	1F	.	.	.	.
.	4FF	.	.	.	.	.	.
1BB-y	1GG	1B-y	.	.	.	.	.
.	.	.	2E	.	.	.	.
=104	=104	=104	=104	=104	=104	=104	=104
0C	1FF	1A	2F	1F	1F	0c	2r
.	.	.	2.c	.	.	.	1f
.	1C	1G	.	1G	1C	.	.
.	.	.	4B-y	.	.	.	.
.	.	.	2c	.	.	.	2e
=105	=105	=105	=105	=105	=105	=105	=105
0r	1FF	0r	1A	1A	1F	1c	1f
.	1r	.	1r	[1G	2E	[1e	2.g
.	.	.	.	.	[2C	.	.
.	.	.	.	.	.	.	4f
=106	=106	=106	=106	=106	=106	=106	=106
0r	0r	0r	0r	2G]	4C]	1e]	4e
.	.	.	.	.	4D	.	4d
.	.	.	.	2C	4E	.	1c
.	.	.	.	.	4C	.	.
.	.	.	.	1F	1D	1f	.
.	.	.	.	.	.	.	2B-y
=107	=107	=107	=107	=107	=107	=107	=107
1r	1r	1r	1r	0G	1C	1e	2c
.	.	.	.	.	.	.	2.g
1B-y	1GG	1G	1D	.	1G	1d	.
.	.	.	.	.	.	.	4f
.	.	.	.	.	.	.	2g
=108	=108	=108	=108	=108	=108	=108	=108
1.A	2.AA	1.c	2.C	0r	1C	0r	1e
.	4BB-y	.	4D	.	.	.	.
.	2C	.	2E	.	1r	.	1r
[2F	[2D	4B-y	2C	.	.	.	.
.	.	4A	.	.	.	.	.
=109	=109	=109	=109	=109	=109	=109	=109
4F]	4D]	2B-y	2D	0r	0r	0r	0r
4E	4C	.	.	.	.	.	.
4D	4BB-y	1A	1d	.	.	.	.
4C	4AA	.	.	.	.	.	.
2D	2.BB-y	.	.	.	.	.	.
2E	.	2G	4c	.	.	.	.
.	8AAL	.	4B-y	.	.	.	.
.	8GGJ	.	.	.	.	.	.
=110	=110	=110	=110	=110	=110	=110	=110
0F	1FF	1A	2d	1r	1r	1r	1r
.	.	.	2c	.	.	.	.
.	1r	1r	1f	1f	1D	1d	1A
=111	=111	=111	=111	=111	=111	=111	=111
0r	0r	0r	0r	1.e	2.E	1.g	2.G
.	.	.	.	.	4F	.	4A
.	.	.	.	.	2G	.	2B-y
.	.	.	.	[2c	[2A	4f	2G
.	.	.	.	.	.	4e	.
=112	=112	=112	=112	=112	=112	=112	=112
0r	0r	0r	0r	4c]	4A]	2f	2A
.	.	.	.	4B-y	4G	.	.
.	.	.	.	4A	4F	1e	1a
.	.	.	.	4G	4E	.	.
.	.	.	.	2A	2.F	.	.
.	.	.	.	2B-y	.	2d	4g
.	.	.	.	.	8EL	.	4f
.	.	.	.	.	8DJ	.	.
=113	=113	=113	=113	=113	=113	=113	=113
0r	1r	1r	1r	0c	1C	1e	2a
.	.	.	.	.	.	.	2g
.	1FF	[1F	[1F	.	1r	1r	1cc
=114	=114	=114	=114	=114	=114	=114	=114
1FF	1.F	1F]	2F]	0r	0r	0r	0r
.	.	.	2E	.	.	.	.
[1F	.	1F	2D	.	.	.	.
.	2E	.	2E	.	.	.	.
=115	=115	=115	=115	=115	=115	=115	=115
2F]	2D	1A	4F	0r	0r	0r	0r
.	.	.	4G	.	.	.	.
2E	2C	.	4A	.	.	.	.
.	.	.	4F	.	.	.	.
2D	2BB-y	[1B-y	2G	.	.	.	.
2C	2AA	.	[2F	.	.	.	.
=116	=116	=116	=116	=116	=116	=116	=116
1BB-y	1GG	1B-]	2F]	0r	1r	1r	1r
.	.	.	2E	.	.	.	.
1C	[1FF	[1A	[1F	.	1C	[1c	[1c
=117	=117	=117	=117	=117	=117	=117	=117
1AA	1FF]	1A]	1F]	1C	1.c	1c]	2c]
.	.	.	.	.	.	.	2B-y
1r	1r	1r	1r	[1c	.	1c	2A
.	.	.	.	.	2B-y	.	2B-y
=118	=118	=118	=118	=118	=118	=118	=118
0r	0r	0r	0r	2c]	2A	1e	4c
.	.	.	.	.	.	.	4d
.	.	.	.	2B-y	2G	.	4e
.	.	.	.	.	.	.	4c
.	.	.	.	2A	2F	[1f	2d
.	.	.	.	2G	2E	.	[2c
=119	=119	=119	=119	=119	=119	=119	=119
0r	0r	0r	0r	1F	1D	1f]	2c]
.	.	.	.	.	.	.	2Bni
.	.	.	.	1G	[1C	[1e	[1c
=120	=120	=120	=120	=120	=120	=120	=120
1.AA	1.C	0A	0c	1E	1C]	1e]	1c]
.	.	.	.	1r	1r	1r	1r
2BB-y	2D	.	.	.	.	.	.
=121	=121	=121	=121	=121	=121	=121	=121
2C	2E	2G	2c	0r	0r	0r	0r
2D	1F	2F	2B-y	.	.	.	.
1C	.	1G	1c	.	.	.	.
.	2E	.	.	.	.	.	.
=122	=122	=122	=122	=122	=122	=122	=122
0FF	1F	0F	0A	0r	0r	0r	0r
.	1C	.	.	.	.	.	.
=123	=123	=123	=123	=123	=123	=123	=123
0r	0r	0r	0r	1.E	1.G	0e	0g
.	.	.	.	2F	2A	.	.
=124	=124	=124	=124	=124	=124	=124	=124
0r	0r	0r	0r	2G	2B-y	2d	2g
.	.	.	.	2A	1c	2c	2f
.	.	.	.	1G	.	1d	1g
.	.	.	.	.	2Bni	.	.
=125	=125	=125	=125	=125	=125	=125	=125
1.C	2.G	1G	1c	0C	1c	0c	0e
.	4F	.	.	.	.	.	.
.	4E	[1c	1G	.	1G	.	.
.	4D	.	.	.	.	.	.
2BB-y	[2G	.	.	.	.	.	.
=126	=126	=126	=126	=126	=126	=126	=126
1AA	2G]	1c]	1A	0r	0r	0r	0r
.	2F	.	.	.	.	.	.
[1GG	2G	[1B-y	2B-y	.	.	.	.
.	2D	.	2G	.	.	.	.
=127	=127	=127	=127	=127	=127	=127	=127
1GG]	1G	1B-]	0d	0r	0r	0r	0r
1D	1F	1A	.	.	.	.	.
=128	=128	=128	=128	=128	=128	=128	=128
0r	0r	0r	0r	1.G	2.d	1d	1g
.	.	.	.	.	4c	.	.
.	.	.	.	.	4B-y	[1g	1d
.	.	.	.	.	4A	.	.
.	.	.	.	2F	[2d	.	.
=129	=129	=129	=129	=129	=129	=129	=129
0r	0r	0r	0r	1E	2d]	1g]	1e
.	.	.	.	.	2c	.	.
.	.	.	.	[1D	2d	[1f	2f
.	.	.	.	.	2A	.	2d
=130	=130	=130	=130	=130	=130	=130	=130
1r	1r	1r	1r	1D]	1d	1f]	0a
2r	2r	2r	2r	1A	1c	1e	.
[2AA	2A	2A	[2c	.	.	.	.
=131	=131	=131	=131	=131	=131	=131	=131
4AA]	1A	[0c	4c]	0r	0r	0r	0r
4GG	.	.	4B-y	.	.	.	.
4AA	.	.	4c	.	.	.	.
4BB-y	.	.	4d	.	.	.	.
[1C	[1G	.	[1e-i	.	.	.	.
=132	=132	=132	=132	=132	=132	=132	=132
1C]	0G_	1c]	2e-]	0r	0r	0r	0r
.	.	.	2c	.	.	.	.
[1GG	.	[1B-y	[1d	.	.	.	.
=133	=133	=133	=133	=133	=133	=133	=133
1GG]	1G]	1B-]	2d]	1r	1r	1r	1r
.	.	.	4c	.	.	.	.
.	.	.	4B-y	.	.	.	.
2AA	2F	2A	2f	2r	2r	2r	2r
[2C	2E	2G	4c	[2E	2e	2e	[2g
.	.	.	4d	.	.	.	.
=134	=134	=134	=134	=134	=134	=134	=134
2C]	1C	1c	4e	4E]	1e	[0g	4g]
.	.	.	4f	4D	.	.	4f
4BB-y	.	.	1g	4E	.	.	4g
4AA	.	.	.	4F	.	.	4a
[1GG	[1D	[1B-y	.	[1G	[1d	.	[1b-y
.	.	.	4f	.	.	.	.
.	.	.	4e	.	.	.	.
=135	=135	=135	=135	=135	=135	=135	=135
1GG]	1D]	1B-]	2.d	1G]	0d_	1g]	2b-]
.	.	.	.	.	.	.	2g
.	.	.	4e	.	.	.	.
[1D	2.D	[1Al	4f	[1D	.	[1f	[1a
.	.	.	4g	.	.	.	.
.	.	.	2a	.	.	.	.
.	4E	.	.	.	.	.	.
=136	=136	=136	=136	=136	=136	=136	=136
1D]	4F	0A_	2f	1D]	1d]	1f]	2a]
.	4G	.	.	.	.	.	.
.	1A	.	2d	.	.	.	4g
.	.	.	.	.	.	.	4f
[1AAl	.	.	[1al	[1El	[1cl	[1el	[1ccl
.	[2AA	.	.	.	.	.	.
=137	=137	=137	=137	=137	=137	=137	=137
0AA_	4AA]	0A_	0a_	0E_	0c_	0e_	0cc_
.	4BB-y	.	.	.	.	.	.
.	4C	.	.	.	.	.	.
.	4D	.	.	.	.	.	.
.	1E	.	.	.	.	.	.
=	=	=	=	=	=	=	=
00AA]	00C	00A]	00a]	00E]	00c]	00e]	00cc]
=||	=||	=||	=||	=||	=||	=||	=||
*M2/1	*M2/1	*M2/1	*M2/1	*M2/1	*M2/1	*M2/1	*M2/1
*met(C|)	*met(C|)	*met(C|)	*met(C|)	*met(C|)	*met(C|)	*met(C|)	*met(C|)
!!section: Tertia pars: O benigna!
!!!OMD: Tertia pars: O benigna!
!LO:TX:a:t=Canon&colon; bassus II/altus II at the octave	!LO:TX:a:t=Canon&colon; bassus I/altus I at the octave	!LO:TX:a:t=Canon&colon; tenor II/superius II at the octave	!LO:TX:a:t=Canon&colon; tenor I/superius I at the octave	!	!	!	!
0AA	1E	[0A	0e	0r	0r	0r	0r
.	[1A	.	.	.	.	.	.
=138	=138	=138	=138	=138	=138	=138	=138
1D	2A]	0A]	0f	0D	1A	[0d	0a
.	1F	.	.	.	.	.	.
1D	.	.	.	.	[1d	.	.
.	4E	.	.	.	.	.	.
.	4D	.	.	.	.	.	.
=139	=139	=139	=139	=139	=139	=139	=139
0GG	1D	[0G	0g	1G	2d]	0d]	0b-y
.	.	.	.	.	1B-y	.	.
.	2r	.	.	1G	.	.	.
.	2D	.	.	.	4A	.	.
.	.	.	.	.	4G	.	.
=140	=140	=140	=140	=140	=140	=140	=140
0r	1.G	0G]	[0e	0C	1G	[0c	0cc
.	.	.	.	.	2r	.	.
.	[2E	.	.	.	2G	.	.
=141	=141	=141	=141	=141	=141	=141	=141
0AA	2E]	[0A	0e]	0r	1.c	0c]	[0a
.	4D	.	.	.	.	.	.
.	4C	.	.	.	.	.	.
.	1C	.	.	.	.	.	.
.	.	.	.	.	[2A	.	.
=142	=142	=142	=142	=142	=142	=142	=142
0D	1F	0A]	2d	0D	2A]	[0d	0a]
.	.	.	2.f	.	4G	.	.
.	.	.	.	.	4F	.	.
.	[1D	.	.	.	1F	.	.
.	.	.	4e	.	.	.	.
.	.	.	2f	.	.	.	.
=143	=143	=143	=143	=143	=143	=143	=143
0GG	1D]	0B-y	1g	0G	1B-y	0d]	2g
.	.	.	.	.	.	.	2.b-y
.	1G	.	2d	.	[1G	.	.
.	.	.	.	.	.	.	4a
.	.	.	[2g	.	.	.	2b-y
=144	=144	=144	=144	=144	=144	=144	=144
0C	2E	0G	4g]	0C	1G]	0e-i	1cc
.	.	.	4f	.	.	.	.
.	2C	.	4e	.	.	.	.
.	.	.	4d	.	.	.	.
.	1G	.	4e	.	1c	.	2g
.	.	.	4f	.	.	.	.
.	.	.	4g	.	.	.	[2cc
.	.	.	4e	.	.	.	.
=145	=145	=145	=145	=145	=145	=145	=145
0FF	0A	0F	[0f	0F	2A	0c	4cc]
.	.	.	.	.	.	.	4b-y
.	.	.	.	.	2F	.	4a
.	.	.	.	.	.	.	4g
.	.	.	.	.	1c	.	4a
.	.	.	.	.	.	.	4b-y
.	.	.	.	.	.	.	4cc
.	.	.	.	.	.	.	4a
=146	=146	=146	=146	=146	=146	=146	=146
0r	1.F	0r	0f]	0BB-y	0d	0B-y	[0b-y
.	4E	.	.	.	.	.	.
.	4D	.	.	.	.	.	.
=147	=147	=147	=147	=147	=147	=147	=147
0GG	0G	0r	1r	0r	1.B-y	0r	0b-]
.	.	.	1g	.	.	.	.
.	.	.	.	.	4A	.	.
.	.	.	.	.	4G	.	.
=148	=148	=148	=148	=148	=148	=148	=148
0AA	1C	[0A	1e	0C	0c	0r	1r
.	1r	.	1e	.	.	.	1cc
=149	=149	=149	=149	=149	=149	=149	=149
1r	1.F	0A]	0f	0D	1F	[0d	1a
1D	.	.	.	.	1r	.	1a
.	4E	.	.	.	.	.	.
.	4D	.	.	.	.	.	.
=150	=150	=150	=150	=150	=150	=150	=150
1GG	1D	[0G	1r	1r	1.B-y	0d]	0b-y
1GG	[1G	.	1g	1G	.	.	.
.	.	.	.	.	4A	.	.
.	.	.	.	.	4G	.	.
=151	=151	=151	=151	=151	=151	=151	=151
1C	2G]	0G]	1e	1C	1G	[0c	1r
.	2F	.	.	.	.	.	.
1r	2E	.	1g	1C	[1c	.	1cc
.	2D	.	.	.	.	.	.
=152	=152	=152	=152	=152	=152	=152	=152
0FF	1C	0A	0f	1F	2c]	0c]	1a
.	.	.	.	.	2B-y	.	.
.	1r	.	.	1r	2A	.	1cc
.	.	.	.	.	2G	.	.
=153	=153	=153	=153	=153	=153	=153	=153
1BB-y	1D	1.B-y	1r	0BB-y	1F	0d	0b-y
1GG	[1G	.	[1g	.	1r	.	.
.	.	2A	.	.	.	.	.
=154	=154	=154	=154	=154	=154	=154	=154
0C	1G]	2.G	2g]	1E-i	1G	1.e-i	1r
.	.	.	2g	.	.	.	.
.	.	4F	.	.	.	.	.
.	1E	1G	1g	1C	[1c	.	[1cc
.	.	.	.	.	.	2d	.
=155	=155	=155	=155	=155	=155	=155	=155
1r	0A	0F	0a	0F	1c]	2.c	2cc]
.	.	.	.	.	.	.	2cc
.	.	.	.	.	.	4B-y	.
1FF	.	.	.	.	1A	1c	1cc
=156	=156	=156	=156	=156	=156	=156	=156
0BB-y	1D	0r	1r	1r	0d	0B-y	0dd
.	1r	.	1d/	1BB-y	.	.	.
=157	=157	=157	=157	=157	=157	=157	=157
0C	1r	0r	1.c	0E-i	1G	0r	1r
.	2r	.	.	.	1r	.	1g
.	2C	.	2B-y	.	.	.	.
=158	=158	=158	=158	=158	=158	=158	=158
0D	1F	0A	1A	0F	1r	0r	1.f
.	[1D	.	1r	.	2r	.	.
.	.	.	.	.	2F	.	2e
=159	=159	=159	=159	=159	=159	=159	=159
0GG	2D]	[0G	1r	0G	1B-y	0d	1d
.	2.d	.	.	.	.	.	.
.	.	.	1d	.	[1G	.	1r
.	4c	.	.	.	.	.	.
.	4B-y	.	.	.	.	.	.
.	4A	.	.	.	.	.	.
=160	=160	=160	=160	=160	=160	=160	=160
1r	2.G	0G]	2g	0C	2G]	[0c	1r
.	.	.	4e	.	2.g	.	.
.	4F	.	4d	.	.	.	.
1C	1E	.	4e	.	.	.	1g
.	.	.	4f	.	4f	.	.
.	.	.	[2g	.	4e	.	.
.	.	.	.	.	4d	.	.
=161	=161	=161	=161	=161	=161	=161	=161
0AA	0r	0A	2g]	1r	2.c	0c]	2cc
.	.	.	4f	.	.	.	4a
.	.	.	4e	.	4B-y	.	4g
.	.	.	1f	1F	1A	.	4a
.	.	.	.	.	.	.	4b-y
.	.	.	.	.	.	.	[2cc
=162	=162	=162	=162	=162	=162	=162	=162
0GG	1G	0BnX	0g	0D	0r	0d	2cc]
.	.	.	.	.	.	.	4bni
.	.	.	.	.	.	.	4a
.	2G	.	.	.	.	.	1bni
.	[2G	.	.	.	.	.	.
=163	=163	=163	=163	=163	=163	=163	=163
1C	4G]	2G	1r	0C	1c	0e	0cc
.	4F	.	.	.	.	.	.
.	4E	2A	.	.	.	.	.
.	4D	.	.	.	.	.	.
1r	1E	1G	1g	.	2c	.	.
.	.	.	.	.	[2c	.	.
=164	=164	=164	=164	=164	=164	=164	=164
0r	2.F	0F	2.a	1F	4c]	2c	1r
.	.	.	.	.	4B-y	.	.
.	.	.	.	.	4A	2d	.
.	4E	.	4g	.	4G	.	.
.	4F	.	4f	1r	1A	1c	1cc
.	4G	.	4e	.	.	.	.
.	2A	.	2f	.	.	.	.
=165	=165	=165	=165	=165	=165	=165	=165
0GG	1.G	0r	1d	0r	2.B-y	0B-y	2.dd
.	.	.	.	.	4A	.	4cc
.	.	.	2.g	.	4B-y	.	4b-y
.	.	.	.	.	4c	.	4a
.	2D	.	.	.	2d	.	2b-y
.	.	.	4f	.	.	.	.
=166	=166	=166	=166	=166	=166	=166	=166
0C	1E	0r	4e	0C	1.c	0r	1g
.	.	.	4d	.	.	.	.
.	.	.	2.e	.	.	.	.
.	1C	.	.	.	.	.	2.cc
.	.	.	4d	.	.	.	.
.	.	.	[2c	.	2G	.	.
.	.	.	.	.	.	.	4b-y
=167	=167	=167	=167	=167	=167	=167	=167
0D	0r	0r	2c]	0F	1A	0r	4a
.	.	.	.	.	.	.	4g
.	.	.	4B-y	.	.	.	2.a
.	.	.	4A	.	.	.	.
.	.	.	1B-y	.	1F	.	.
.	.	.	.	.	.	.	4g
.	.	.	.	.	.	.	[2f
=168	=168	=168	=168	=168	=168	=168	=168
0C	0r	0r	0c	0G	0r	0r	2f]
.	.	.	.	.	.	.	4e
.	.	.	.	.	.	.	4d
.	.	.	.	.	.	.	1e
=169	=169	=169	=169	=169	=169	=169	=169
0r	0r	0F	0A	0F	0r	0r	0f
=170	=170	=170	=170	=170	=170	=170	=170
1GG	1D	[0G	2r	0r	0r	0B-y	0d
.	.	.	2G	.	.	.	.
1GG	1G	.	1g	.	.	.	.
=171	=171	=171	=171	=171	=171	=171	=171
1.C	1E	0G]	2g	1C	1G	[0c	2r
.	.	.	2e	.	.	.	2c
.	2r	.	2e	1C	1c	.	1cc
2C	2C	.	2g	.	.	.	.
=172	=172	=172	=172	=172	=172	=172	=172
1FF	2C	1A	2.f	1.F	1A	0c]	2cc
.	2C	.	.	.	.	.	2a
.	.	.	4e	.	.	.	.
1FF	[1F	1A	4f	.	2r	.	2a
.	.	.	4g	.	.	.	.
.	.	.	2a	2F	2F	.	2cc
=173	=173	=173	=173	=173	=173	=173	=173
1BB-y	1F]	1B-y	2f	1BB-y	2F	1d	2.b-y
.	.	.	1d	.	2F	.	.
.	.	.	.	.	.	.	4a
1GG	[1G	1B-y	.	1BB-y	[1B-y	1d	4b-y
.	.	.	.	.	.	.	4cc
.	.	.	[2g	.	.	.	2dd
=174	=174	=174	=174	=174	=174	=174	=174
0r	1G]	1.G	2g]	1E-i	1B-]	1e-i	2b-y
.	.	.	2g	.	.	.	1g
.	1r	.	1g	1C	[1c	1e-i	.
.	.	2F	.	.	.	.	[2cc
=175	=175	=175	=175	=175	=175	=175	=175
1AA	2r	0E	2r	0r	1c]	1.c	2cc]
.	2C	.	2c	.	.	.	2cc
2C	2C	.	1e	.	1r	.	1cc
2C	2E	.	.	.	.	2B-y	.
=176	=176	=176	=176	=176	=176	=176	=176
0D	1F	0r	2d	1D	2r	0A	2r
.	.	.	2.f	.	2F	.	2f
.	[1D	.	.	2F	2F	.	1a
.	.	.	4e	.	.	.	.
.	.	.	[2d	2F	2A	.	.
=177	=177	=177	=177	=177	=177	=177	=177
1GG	1D]	0G	4d]	0G	1B-y	0r	2g
.	.	.	4c	.	.	.	.
.	.	.	4B-y	.	.	.	2.b-y
.	.	.	4A	.	.	.	.
2r	2r	.	1B-y	.	[1G	.	.
.	.	.	.	.	.	.	4a
2GG	2G	.	.	.	.	.	[2g
=178	=178	=178	=178	=178	=178	=178	=178
1C	4E	0G	1c	1C	1G]	0c	4g]
.	4D	.	.	.	.	.	4f
.	4E	.	.	.	.	.	4e
.	4F	.	.	.	.	.	4d
1C	1G	.	1g	2r	2r	.	1e
.	.	.	.	2C	2c	.	.
=179	=179	=179	=179	=179	=179	=179	=179
0FF	1F	0A	2r	1F	4A	0c	1f
.	.	.	.	.	4G	.	.
.	.	.	1a	.	4A	.	.
.	.	.	.	.	4B-y	.	.
.	2C	.	.	1F	1c	.	1cc
.	[2F	.	[2f	.	.	.	.
=180	=180	=180	=180	=180	=180	=180	=180
0r	4F]	0F	2f]	0BB-y	1B-y	0d	2r
.	4D	.	.	.	.	.	.
.	1F	.	4e	.	.	.	1dd
.	.	.	4d	.	.	.	.
.	.	.	[1d	.	2F	.	.
.	4E	.	.	.	[2B-y	.	[2b-y
.	4D	.	.	.	.	.	.
=181	=181	=181	=181	=181	=181	=181	=181
0GG	0D	0G	1d]	0r	4B-]	0B-y	2b-]
.	.	.	.	.	4G	.	.
.	.	.	.	.	1B-y	.	4a
.	.	.	.	.	.	.	4g
.	.	.	2r	.	.	.	[1g
.	.	.	[2g	.	4A	.	.
.	.	.	.	.	4G	.	.
=182	=182	=182	=182	=182	=182	=182	=182
1C	0E	0G	4g]	0C	0G	0c	1g]
.	.	.	4f	.	.	.	.
.	.	.	4e	.	.	.	.
.	.	.	4d	.	.	.	.
1C	.	.	1e	.	.	.	2r
.	.	.	.	.	.	.	[2cc
=183	=183	=183	=183	=183	=183	=183	=183
0FF	1C	0F	[0f	1F	0A	0c	4cc]
.	.	.	.	.	.	.	4b-y
.	.	.	.	.	.	.	4a
.	.	.	.	.	.	.	4g
.	1c	.	.	1F	.	.	1a
=184	=184	=184	=184	=184	=184	=184	=184
0r	0d	0r	0f]	0BB-y	1F	0B-y	[0b-y
.	.	.	.	.	1f	.	.
=185	=185	=185	=185	=185	=185	=185	=185
0r	0B-y	0G	0r	0r	0g	0r	0b-]
=186	=186	=186	=186	=186	=186	=186	=186
0AA	2A	0A	1c	0r	0e	0c	0r
.	1E	.	.	.	.	.	.
.	.	.	1A	.	.	.	.
.	[2A	.	.	.	.	.	.
=187	=187	=187	=187	=187	=187	=187	=187
1D	2A]	0F	0a	0D	2d	0d	1f
.	1F	.	.	.	1A	.	.
1D	.	.	.	.	.	.	1d
.	4E	.	.	.	[2d	.	.
.	4D	.	.	.	.	.	.
=188	=188	=188	=188	=188	=188	=188	=188
1GG	1D	0G	2.g	1G	2d]	0B-y	0dd
.	.	.	.	.	1B-y	.	.
.	.	.	4a	.	.	.	.
2r	2r	.	2b-y	1G	.	.	.
2GG	2D	.	[2g	.	4A	.	.
.	.	.	.	.	4G	.	.
=189	=189	=189	=189	=189	=189	=189	=189
1C	2.E	0G	4g]	[0Cl	1G	0c	[0ccl
.	.	.	4f	.	.	.	.
.	.	.	4e	.	.	.	.
.	4F	.	4d	.	.	.	.
1C	2G	.	1e	.	2r	.	.
.	2C	.	.	.	2G	.	.
=190	=190	=190	=190	=190	=190	=190	=190
2FF	0r	2F	2f	0C_	2.A	[0cl	0cc_
2.FF	.	2.c	4F	.	.	.	.
.	.	.	4G	.	4B-y	.	.
.	.	.	4A	.	2c	.	.
4GG	.	4B-y	4B-y	.	.	.	.
4AA	.	2A	4c	.	2F	.	.
4BB-y	.	.	4d	.	.	.	.
=191	=191	=191	=191	=191	=191	=191	=191
2C	2r	2G	4e	0C_	0r	0c_	0cc_
.	.	.	4c	.	.	.	.
2FF	2C	2F	1f	.	.	.	.
1C	2E	1G	.	.	.	.	.
.	2E	.	2e	.	.	.	.
=192	=192	=192	=192	=192	=192	=192	=192
[0FFl	2C	[0Fl	[0fl	0C_	2r	0c_	0cc_
.	2.c	.	.	.	2F	.	.
.	.	.	.	.	2A	.	.
.	4B-y	.	.	.	.	.	.
.	4A	.	.	.	2A	.	.
.	4G	.	.	.	.	.	.
=193	=193	=193	=193	=193	=193	=193	=193
00FF]	00Al	00F]	00f]	00C]	00Fl	00c]	00cc]
==	==	==	==	==	==	==	==
*-	*-	*-	*-	*-	*-	*-	*-
!!!system-decoration: [*]
!!!RDF**kern: i = editorial accidental
!!!RDF**kern: l = terminal long
!!!ENC: Benjamin Ory
!!!END: 2021/1/26
!!!ENC: Benjamin Ory
!!!EEV: 2022/01/19
!!!YEC: Copyright 2021 Benjamin Ory, All Rights Reserved
!!!ONB: Translated from MusicXML on 2022/01/19
